X:1
T:Jimmy Holmes' Favorite -- Reel
R:reel
N:349
B:Ryan's Mammoth Collection
O:SCOTCH
Z:Contributed by Ray Davies,  ray:davies99.freeserve.co.uk
M:C|
L:1/8
K:D
vD2FA d2AA | d2fd "4"e2cA | d2Ad BAGF | E2"4"AG (F<D)D2 |
 D2FA d2AA | d2fd "4"e2cA | d2Ad BAGF | E2"4"AG (F<D)D2 |]
vd2df a2fd | g2bg e2cA | d2df a2fd | egfe (f<d)d2 |
 d2df a2fd | g<b g<b e2(cA) | d2Ad BAGF | E2"4"AG (F<D)D2 |]
